X:10502
T:Mayor Harrison's Fedora
R:Reel
S:
H:
N:
D:
Z:Adrian Scahill
M:4/4
L:1/8
K:D
GBEG B2AF|G3A (3Bcd AG|FEDF A2FA|dcdB AGFA|\
GBEG B2AF|G3A B3c|dedB AGFA|GBFB E4:||\
Beed e3f|(3gag fg edBA|GABc d2Bc|dfaf gfed|\
Beed e3f|g2fg edBc|dedB AGFA|GAFG E4:||\
G2GF GABc|dBAG FADA|Beed e3f|g2fg edBc|\
dcdB AGFA|GFEF GABc|dcdB AGFA|GAFG E4:||
